X:1
T:The Happy Christmas Morn
T:The Happy Christmas Morn
T:Arranged by Horace Waters
T:Anna R. Barkuloo, 1858
T:Public Domain Courtesy of the Cyber Hymnal™
T:Public Domain Courtesy of the Cyber Hymnal™
T:Public Domain Courtesy of the Cyber Hymnal™
C:Arranged by Horace Waters
Z:Public Domain
Z:Courtesy of the Cyber Hymnal™
%%score ( 1 2 ) ( 3 4 )
L:1/8
Q:1/4=105
M:6/8
K:D
V:1 treble 
V:2 treble 
V:3 bass 
V:4 bass 
V:1
 [FA] | [Fd]2 [Fd] [FA]2 [FA] | [Fd]2 [Fd] [FA]2 [FA] | [GB]2 [Ac] ([Bd][Ac])[GB] | [FA]4 z [FA] | %5
w: 1.~The|prom- ised morn- ing|o’er us breaks, Ma-|jes- tic in * ar-|ray; The|
w: 2.~When|even- ing sha- dows|thick- ly fall, A-|round life’s clos- * ing|day, When|
 [FA]2 [EG] [CE]2 [CE] | [GB]2 [FA] [DF]2 [FA] | ([Ed][Ed])[Ed] (dc)[=GB] | A3 z2 A | %9
w: great Re- deem- er|on Him takes The|gar- * ment of * our|clay. For|
w: dear- est friends un-|heed- ed call, Life’s|mem- * ories swept * a-|way: Ou-|
 [Gc]>[Gc][Gc] (cB)[Gc] | [Fd]2 [FA] [FA]2 [FA] | ([EG][DF])[EG] ([GB][FA])[EG] | [DF]3 z2 A | %13
w: Beth- le- hem’s babe * shall|save from sin, Young|child- * ren yet * un-|born; And|
w: r hearts shall thrill * to|one dear name, In|gen- * tle whis- * pers|borne, Sweet|
 [Gc]2 [Gc] (cB)[Gc] | [Fd]2 [FA] [FA]2 [FA] | d2 A F2 D | A3 z2 A | [FA]3 [DF]3 | [FA]3 z2 [FA] | %19
w: an- gels joy * to|ush- er in, The|hap- py Christ- mas|morn, The|Christ- mas|morn, The|
w: Sav- ior! Je- * sus!|He who came Up-|on the Christ- mas|morn, The|Christ- mas|morn, Up-|
 [Fd]2 [FA] [DF]2 [DA] | [CE]3 z2 [FA] | [FA]3 [DF]3 | [FA]3 z2 [FA] | (dA)[DF] ([FA][EG])[CE] | %24
w: hap- py Christ- mas|morn, The|Christ- mas|morn, The|hap- * py Christ- * mas|
w: on the Christ- mas|morn, The|Christ- mas|morn, Up-|on * the Christ- * mas|
 D3 z2 | [FA] | [GB]>[GB][GB] ([Bd][Ac])[GB] | [FA]2 [FA] [FA]2 [FA] | [GB]2 [GB] ([Bd][Ac])[GB] | %29
w: morn.|For|Beth- le- hem’s babe * shall|save from sin, Young|child- ren yet * un-|
w: morn,|Ou-|r hearts shall thrill * to|one dear name, In|gen- tle whis- * pers|
 [FA]3 z2 A | [Fd]2 [FA] [FA]2 [FA] | [Gd]2 [GB] [GB]2 [GB] | [GA]2 [GA] (AB)[Gc] | [Fd]3 z2 [EA] | %34
w: born; And|an- gels joy to|ush- er in, The|hap- py Christ- * mas|morn, And|
w: borne, Sweet|Sav- ior! Je- sus!|He who came Up-|on the Christ- * mas|morn, Sweet|
 [Fd]2 [FA] [FA]2 [FA] | [Gd]2 [GB] [GB]2 [GB] | [GA]2 [GA] (AB)[Gc] | [Fd]3 z2 [Fd] | %38
w: an- gels joy to|ush- er in, The|hap- py Christ- * mas|morn, The|
w: Sav- ior! Je- sus!|He who came Up-|on the Christ- * mas|morn, Up-|
 A2 [CA] A2 [CA] | [Dd]2 z3 [Dd] | [FA]2 [Fd] ([Ac][GB])[Ac] | [Fd]3- [Fd]2 |] %42
w: hap- py Christ- mas|morn, The|hap- py Christ- * mas|morn. *|
w: on the Christ- mas|morn, Up-|on the Christ- * mas|morn. *|
V:2
 x | x6 | x6 | x6 | x6 | x6 | x6 | x3 ^G2 x | A3 A x2 | x3 G2 x | x6 | x6 | x5 A | x3 G2 x | x6 | %15
 d2 A F2 D | A3 A x2 | x6 | x6 | x6 | x6 | x6 | x6 | F2 x4 | D3 x2 | x | x6 | x6 | x6 | x5 A | x6 | %31
 x6 | x3 G2 x | x6 | x6 | x6 | x3 G2 x | x6 | (ED) (E D) x2 | x6 | x6 | x5 |] %42
V:3
 [D,D] | [D,A,]2 [D,A,] [D,D]2 [D,D] | [D,A,]2 [D,A,] [D,D]2 [D,D] | [G,D]2 [G,C] (B,C)[G,D] | %4
 [D,D]4 z [D,A,] | [A,,A,]2 [A,,A,] (E,F,)[A,,G,] | [D,B,]2 [D,D] [D,A,]2 [D,A,] | %7
 ([E,^G,][E,G,])[E,G,] [E,B,]2 [E,D] | [A,,C]3 z2 A, | E,>F,[A,,G,] [A,,E,]2 [A,,A,] | %10
 [D,A,]2 [D,D] [D,D]2 [D,A,] | [C,A,]2 [C,A,] A,2 [C,A,] | [D,A,]3 z2 A, | %13
 (E,F,)[A,,G,] [A,,E,]2 [A,,A,] | [D,A,]2 [D,D] [D,D]2 A, | D2 A, F,2 D, | A,3 z2 A, | %17
 [D,D]3 [D,A,]3 | [D,D]3 z2 [D,D] | [D,A,]2 [D,A,] [D,A,]2 [D,F,] | [A,,A,]3 z2 [D,A,] | %21
 [D,D]3 [D,A,]3 | [D,D]3 z2 [D,D] | [D,A,]2 [D,A,] [A,,A,]2 [A,,G,] | [D,F,]3 z2 | [D,D] | %26
 [G,D]>[G,D][G,D] (B,C)[G,D] | [D,D]2 [D,D] [D,D]2 [D,D] | [G,D]2 [G,D] (B,C)[G,D] | %29
 [D,D]3 z2 [A,C] | [D,D]2 [D,D] [D,D]2 [D,D] | [G,B,]2 [G,D] [G,D]2 [G,D] | %32
 [A,C]2 [A,C] [A,C]2 [A,,A,] | [D,A,]3 z2 [A,C] | [D,D]2 [D,D] [D,D]2 [D,D] | %35
 [G,B,]2 [G,D] [G,D]2 [G,D] | [A,C]2 [A,C] [A,C]2 [A,,A,] | [D,A,]3 z2 [D,A,] | %38
 (G,F,)[A,,E,] (G,F,)[A,,E,] | [D,F,]2 ([F,A,][A,D][F,B,])[D,F,] | %40
 [A,,A,]2 [A,,A,] [A,,E,]2 [A,,A,] | [D,A,]3- [D,A,]2 |] %42
V:4
 x | x6 | x6 | x3 G,2 x | x6 | x3 A,,2 x | x6 | x6 | x5 A, | A,,2 x4 | x6 | x3 (A,,B,,) x | x5 A, | %13
 A,,2 x4 | x5 A, | D2 A, F,2 D, | A,3 A, x2 | x6 | x6 | x6 | x6 | x6 | x6 | x6 | x5 | x | %26
 x3 G,2 x | x6 | x3 G,2 x | x6 | x6 | x6 | x6 | x6 | x6 | x6 | x6 | x6 | A,,2 A,,2 x2 | x6 | x6 | %41
 x5 |] %42

